X:35
T:Polska från Uppland
T:Svenska Folkdansar H1 nr 35
O:Uppland
B:Traditioner av Svenska Folkdansar Häfte 1, nr 35
R:Polska
Z:Nils L
N:I originalnoterna finns en "8va" som det är litet osäkert hur man ska tolka.
U:V=wedge
M:3/4
L:1/16
K:C
g4 e4 c4 | c2Bc (dcBA) B2G2 | g4 e4 c4 | edcB c4 C4 ::
DGBG DGBG DGBG | EGcG EGcG EGcG | DGBG DGBG DGBG | egc'g egc'g egc'g |
Vd'4 d'2e'2 f'2e'2 | Vd'2(d'e') f'4 e'4 | d2>e2 f2e2 d2c2 | (Bc)dB c4 C4 :|

